!!!COM: Bach, Johann Sebastian
!!!CDT: 1685/02/21/-1750/07/28/
!!!OPR: Sonata for solo violin, No. 1 in G minor
!!!OTL: Movement 4: Presto
!!!ODT: 1720///
!!!SCT: BWV 1001
**kern
!!*>[A,A,B,B]
!!*>norep[A,B]
=1-
*>A
*Ivioln
*clefG2
*k[]
*M3/8
*MM132
16gg\LL
16bb-\
16gg\
16dd\
16gg\
16dd\JJ
=2
16b-\LL
16dd\
16b-\
16g\
16b-\
16g\JJ
=3
16d/LL
16g/
16d/
16B-/
16d/
16B-/JJ
=4
16G/LL
16B-/
16d/
16g/
16b-/
16dd/JJ
=5
16gg\LL
(16dd\
16cc\
16b-\
16a\
16g\JJ)
=6
16f#/LL
16d/
16f#/
16a/
16dd/
16ff#/JJ
=7
16aa\LL
(16ee-\
16dd\
16cc\
16b-\
16a\JJ)
=8
16g/LL
16d/
16g/
16b-/
16dd/
16gg/JJ
=9
16bb-\LL
16gg\
16ee-\
16cc\
16ee-\
16gg\JJ
=10
16aa\LL
16ff\
16dd\
16b-\
16dd\
16ff\JJ
=11
16gg\LL
16ee-\
16cc\
16a\
16cc\
16ee-\JJ
=12
16d\LL
(16gg\
16ff#\
16gg\
16aa\
16cc\JJ)
=13
16g/LL
(16cc/
16b-/
16cc/
16dd/
16f/JJ)
=14
16c\LL
(16ff\
16ee\
16ff\
16gg\
16b-\JJ)
=15
16f/LL
(16b-/
16a/
16b-/
16cc/
16e-/JJ)
=16
16B-\LL
(16ee-\
16dd\
16ee-\
16ff\
16a-\JJ)
=17
16e-/LL
16B-/
16e-/
16g/
16e-/
16g/JJ
=18
16cc\LL
16g\
16cc\
16ee-\
16cc\
16ee-\JJ
=19
16f/LL
16c/
16f/
16a/
16f/
16a/JJ
=20
16dd\LL
16a\
16dd\
16ff\
16dd\
16ff\JJ
=21
16g/LL
16d/
16g/
16b-/
16g/
16b-/JJ
=22
16ee-\LL
16b-\
16ee-\
16gg\
16ee-\
16gg\JJ
=23
16a/LL
16f/
16a/
16cc/
16a/
16cc/JJ
=24
16ff\LL
16cc\
16ff\
16aa\
16ff\
16aa\JJ
=25
(16b-\LL
16cc\
16dd\)
16bb-\
16aa\
16bb-\JJ
=26
(16cc\LL
16dd\
16ee-\)
16bb-\
16aa\
16bb-\JJ
=27
(16dd\LL
16ee-\
16ff\)
16bb-\
16aa\
16bb-\JJ
=28
(16ee-\LL
16ff\
16gg\)
16bb-\
16aa\
16bb-\JJ
=29
(16a\LL
16cc\
16ee-\)
16gg\
16ff\
16ee-\JJ
=30
(16dd\LL
16b-\)
(16ee-\
16b-\)
16ff\
16a-\JJ
=31
(16g/LL
16a/
16b-/)
16d/
16c/
16a/JJ
=32
16B-/LL
(16d/
16c/
16B-/
16A/
16G/JJ
=33
16A/LL)
(16g/
16f#/
16e/
16d/)
(16cc/JJ
=34
16b-\LL
16a\
16g\)
(16ff\
16ee\
16dd\JJ
=35
16cc#\LL)
(16bb-\
16aa\
16gg\
16ff\
16ee\JJ)
=36
(16ff\LL
16dd\)
(16gg\
16dd\)
16aa\
16cc\JJ
=37
16b-\LL
(16aa\
16gg\
16ff\
16ee\
16dd\JJ)
=38
(16ee\LL
16cc\)
(16ff\
16cc\)
16gg\
16b-\JJ
=39
16a\LL
(16gg\
16ff\
16ee\
16dd\
16cc#\JJ)
=40
(16dd\LL
16b-\)
(16ee\
16b-\)
16ff\
16a\JJ
=41
16g\LL
(16ff\
16ee\
16dd\
16cc#\
16b\JJ)
=42
(16cc#\LL
16a\)
(16dd\
16a\)
16ee\
16g\JJ
=43
16f/LL
16dd/
16b-/
16g/
16e/
16cc/JJ
=44
16d/LL
16b-/
16g/
16e/
16c/
16a/JJ
=45
16B-/LL
16g/
16e/
16c#/
16A/
16f/JJ
=46
16G/LL
(16f/
16e/
16d/
16c#/
16B/JJ)
=47
16A/LL
16d/
(16c#/
16e/)
(16d/
16f/JJ)
=48
16A/LL
16e/
(16d/
16f/)
(16e/
16g/JJ)
=49
16A/LL
16f/
(16e/
16g/)
(16f/
16a/JJ)
=50
16B-/LL
16g/
(16f#/
16a/)
(16g/
16b-/JJ)
=51
16c#/LL
(16b-/
16a/
16g/
16f/
16e/JJ)
=52
16f/LL
16d/
16f/
16a/
16dd/
16ff/JJ
=53
16aa/LL
16dd/J
*^
8a/	8a\L
*	*^
8cc#/J	8g\J	8A/
*	*v	*v
*v	*v
=54
*^
*	*^
4.dd/	4.f#/	4.d\
*	*v	*v
*v	*v
=55:|!|:
*>B
16d/LL
16A/
16d/
16f#/
16d/
16f#/JJ
=56
16a/LL
16f#/
16a/
16dd/
16a/
16dd/JJ
=57
16ff#\LL
16dd\
16ff#\
16aa\
16ff#\
16aa\JJ
=58
16ddd\LL
16aa\
16ff#\
16dd\
16a\
16f#\JJ
=59
(16d/LL
16e/
16f#/
16g/
16a/
16b-/JJ
=60
16cc/LL)
16ee-/
16cc/
16a/
16cc/
16a/JJ
=61
16f#/LL
16d/
16f#/
16a/
16dd/
16cc/JJ
=62
16b-/LL
16dd/
16b-/
16g/
16d/
16B-/JJ
=63
(16G/LL
16A/
16B-/
16c/
16d/
16e-/JJ
=64
16f/LL)
16a-/
16f/
16d/
16f/
16d/JJ
=65
16B/LL
16G/
16B/
16d/
16g/
16f/JJ
=66
16e-/LL
16c/
16e-/
16g/
16cc/
16dd/JJ
=67
16ee-/LL
16cc/
16a-/
16f/
16a-/
16cc/JJ
=68
16dd/LL
16b-/
16g/
16e-/
16g/
16b-/JJ
=69
16cc/LL
16a-/
16f/
16d/
16f/
16a-/JJ
=70
16G/LL
(16cc/
16b/
16cc/
16dd/)
16f/JJ
=71
16c/LL
(16ff/
16ee-/
16ff/
16gg/)
16b-/JJ
=72
16f/LL
(16b-/
16a-/
16b-/
16cc/)
16e-/JJ
=73
16B-/LL
(16ee-/
16dd/
16ee-/
16ff/)
16a-/JJ
=74
16e-/LL
(16a-/
16g/
16a-/
16b-/)
16d-/JJ
=75
(16A-/LL
16c/
16f/
16a-/
16g/
16f/JJ)
=76
(16B/LL
16d/
16f/
16a-/
16g/
16f/JJ)
=77
(16c/LL
16e/
16f/
16a-/
16g/
16f/JJ)
=78
(16d/LL
16f/
16b/
16cc/
16dd/
16f/JJ)
=79
(16e-/LL
16g/
16cc/
16dd/
16ee-/
16cc/JJ)
=80
(16aa-\LL
16gg\
16ff\
16ee-\
16dd\
16cc\JJ)
=81
16gg\LL
16dd\
16ee-\
16cc\
16g\
16b\JJ
=82
16c/LL
(16f/
16e-/
16d/
16c/
16B-/JJ)
=83
16A/LL
16c/
16f/
16c/
16f/
16a/JJ
=84
16f\LL
16a\
16cc\
16a\
16cc\
16ee-\JJ
=85
(16cc\LL
16ee-\
16aa\
16gg\
16ff\
16ee-\JJ)
=86
(16dd\LL
16cc\
16b-\
16cc\
16dd\
16ee\JJ)
=87
16ff#\LL
16aa\
16ccc\
16aa\
16ff#\
16aa\JJ
=88
16ff#\LL
16cc\
16ff#\
16cc\
16a\
16cc\JJ
=89
16a/LL
16f#/
16a/
16f#/
16d/
16cc/JJ
=90
16b-/LL
16g/
16b-/
16g/
16e/
16dd/JJ
=91
16cc/LL
16a/
16cc/
16a/
16f#/
16ee-/JJ
=92
16dd\LL
16b-\
16dd\
16b-\
16g\
16ff\JJ
=93
16ee-\LL
16cc\
16ee-\
16cc\
16a\
16gg\JJ
=94
(16ff#\LL
16dd\
16ee\
16ff#\
16gg\
16aa\JJ)
=95
16bb-\LL
16dd\
16gg\
16bb-\
16cc\
16ee-\JJ
=96
16aa\LL
16ff\
16dd\
16b-\
16dd\
16ff\JJ
=97
16gg\LL
16b-\
16ee-\
16gg\
16a\
16cc\JJ
=98
16ff\LL
16dd\
16b-\
16g\
16b-\
16dd\JJ
=99
16ee-\LL
16g\
16cc\
16ee-\
16f\
16a\JJ
=100
16dd/LL
16b-/
16g/
16e/
16g/
16b-/JJ
=101
(16cc/LL
16a/)
(16b-/
16g/)
16f#/
16a/JJ
=102
(16d/LL
16e/
16f#/
16g/
16a/
16b-/JJ)
=103
(16cc\LL
16ee-\)
(16dd\
16gg\)
(16ff#\
16bb-\JJ)
=104
(16aa\LL
16gg\
16ff#\
16ee\
16dd\
16cc\JJ)
=105
16b-\LL
16ee-\
(16dd\
16b-\)
(16cc\
16a\JJ)
=106
16f/LL
16dd/
(16cc/
16a/)
(16b-/
16g/JJ)
=107
16e-/LL
16cc/
(16b-/
16g/)
(16a/
16f#/JJ)
=108
16d/LL
16b-/
(16a/
16f#/)
(16g/
16e-/JJ)
=109
16c/LL
16a/
(16g/
16e/)
(16f#/
16d/JJ)
=110
16B-/LL
(16dd/
16cc/
16b-/
16a/
16g/JJ)
=111
(16ee-\LL
16dd\
16cc\)
(16bb-\
16aa\
16gg\JJ)
=112
(16ff#\LL
16gg\
16aa\)
16dd\
16ee-\
16cc\JJ
=113
(16f/LL
16b/
16dd/)
16a-/
16g/
16f/JJ
=114
16e\LL
16g\
16cc\
16ee\
16gg\
16b-\JJ
=115
(16e-/LL
16a/
16cc/)
16g/
16f/
16e-/JJ
=116
16d/LL
16f/
16b-/
16dd/
16ff/
16a-/JJ
=117
16g/LL
(16ee-/
16b-/
16g/
16e-/
16d/JJ
=118
16c/LL)
(16ee-/
16cc/
16b-/
16a/
16g/JJ
=119
16f#/LL)
(16dd/
16a/
16f#/
16d/
16c/JJ
=120
16B-/LL)
(16dd/
16b-/
16a/
16g/
16f/JJ
=121
16e/LL)
16c/
16g/
16B-/
16A/
16g/JJ
=122
16f#/LL
16d/
16a/
16c/
16B-/
16a/JJ
=123
16g/LL
16e-/
16b-/
16d/
16c/
16b-/JJ
=124
16a/LL
16f/
16cc/
16e-/
16d/
16cc/JJ
=125
16b-/LL
16g/
16dd/
16f/
16e/
16dd/JJ
=126
16cc\LL
16a\
16ee-\
16g\
16f#\
16ee-\JJ
=127
16dd\LL
16b-\
16gg\
16b-\
16a\
16cc\JJ
=128
16b-/LL
16g/
16f#/
16a/
16d/
16c/JJ
=129
16B-/LL
16g/
(16f#/
16a/)
(16g/
16b-/JJ)
=130
16c/LL
16a/
(16g/
16b-/)
(16a/
16cc/JJ)
=131
16d/LL
16b-/
(16a/
16cc/)
(16b-/
16dd/JJ)
=132
16e-/LL
16cc/
(16b/
16dd/)
(16cc/
16ee-/JJ)
=133
16f#\LL
(16ee-\
16dd\
16cc\
16b-\
16a\JJ)
=134
16b-\LL
16dd\
16gg\
16bb-\
16gg\
16dd\JJ
=135
16b-/LL
16g/J
8d/
*^
*	*^
8ff#/J	8cc/	8d\
*	*v	*v
*v	*v
=136
*^
*	*^
*	*	*^
4.gg/	4.b-/	4.d/	4.G/
*	*	*v	*v
*	*v	*v
*v	*v
==
*-
!!!ENC: Craig Stuart Sapp
!!!END: 2004/04/03/
